!!!!SEGMENT: pl-wtm--557--001-002_stojowski-zygmunt--romantische-stucke-op-25-2-en-valsant.krn
!!!cenid: 19xx:161
!!!COM: Stojowski, Zygmunt
!!!COM-rismID: pe41019736
!!!CDT: 1870-1946
!!!CNT: Polish
!!!GTL: Romantische Stücke Op. 25
!!!OTL: 2. En valsant
!!!OMV: 002
!!!PDT:
!!!AGN:
!!!YEC: Copyright 2022 Narodowy Instytut Fryderyka Chopina (https://polishscores.org)
!!!YEM: License CC-BY-4.0 (https://creativecommons.org/licenses/by/4.0)
!!!SMS-siglum: PL-Wtm
!!!SMS-shelfmark: 557
!!!SMS-variant:
!!!SMS-altvar:
!!!SMS-shelfwork: 001-002 G
!!!NIFC-rismSourceID: 1001211569
!!!NIFC-rismChildID: 1001211569
!!!NIFC-islandoraID: pl-wtm:75301
!!!URL-pdf-islandora: https://repozytorium.nifc.pl/islandora/object/pl-wtm%3A75301/datastream/PDF/view
!!!URL-scan: https://polish.musicsources.pl/pl/lokalizacje/galeria/druki-muzyczne/19410/5 @EN{Scan on Polish Music Sources Website} @PL{Skany w portalu Dziedzictwo Muzyki Polskiej w otwartym dostępie}
!!!IIIF:
!!!ONB-nifc:
!!!AIN: 1 piano
!!!key: A-
**kern	**fing	**kern	**fing	**dynam
*part1	*	*part1	*	*part1
*staff2	*	*staff1	*	*staff1/2
*group1	*	*group1	*	*
*ICklav	*	*ICklav	*	*
*Ipiano	*	*Ipiano	*	*
*I"PIANO.	*	*I"PIANO.	*	*
*	*	*I'	*	*
*clefF4	*	*clefG2	*	*
*kcancel	*	*kcancel	*	*
*k[b-e-a-d-]	*	*k[b-e-a-d-]	*	*
*A-:	*	*A-:	*	*
*M3/4	*	*M3/4	*	*
=1	=1	=1	=1	=1
*ped	*below	*	*	*
!!LO:TX:a:B:t=Allegretto con moto.
!	!	!	!	!LO:DY:t=%s leggiero e staccato sempre
4AA-/	.	2.r	.	p
4c 4E-'\	3	.	.	.
4c 4E-'\	.	.	.	.
=2	=2	=2	=2	=2
*	*^	*	*	*
*ped	*	*	*	*	*
4BB--/	.	.	2.r	.	.
!LO:TX:t=P:problem:łuczek nad oznaczeniem palcowania	!	!	!	!	!
4e- 4d- 4E-'\	11	4	.	.	.
4e- 4d- 4E-'\	.	.	.	.	.
*	*v	*v	*	*	*
=3	=3	=3	=3	=3
!LO:TX:b:i:t=simile	!	!	!	!
4AA-/	.	2.r	.	.
4c 4E-\	.	.	.	.
4c 4E-\	.	.	.	.
=4	=4	=4	=4	=4
4BB--/	.	2.r	.	.
4e- 4d- 4E-\	.	.	.	.
4e- 4d- 4E-\	.	.	.	.
=5	=5	=5	=5	=5
4AA-/	.	4r	.	.
4c 4E-\	.	8r	.	.
.	.	(8cc\L	1	.
4c 4E-\	.	8aa-\	.	.
.	.	8ff\J)	.	.
=6	=6	=6	=6	=6
.	.	(16qqee-/LL	.	.
.	.	16qqff/JJ	.	.
4BB--/	.	8ee-\L)	.	.
.	.	8cc'\J	.	.
4e- 4d- 4E-\	.	[2ee-\	.	.
4e- 4d- 4E-\	.	.	.	.
!!LO:LB:g=original
=7	=7	=7	=7	=7
4AA-/	.	8ee-\]	.	.
.	.	8r	.	.
4c 4E-\	.	8r	.	.
.	.	(8cc\L	.	.
4c 4E-\	.	8aa-\	.	.
.	.	8ff\J	.	<
=8	=8	=8	=8	=8
.	.	16qqee-/LL	.	.
.	.	16qqff/JJ	.	.
*^	*	*	*	*
(<2.D-/	4r	.	8ee-\L	.	.
.	.	.	8cc\J	.	.
.	4e- 4G\	3	8b-'\)	.	[
.	.	.	8r	.	.
.	4e- 4G\	.	(4cc\	.	.
*v	*v	*	*	*	*
=9	=9	=9	=9	=9
4C/)	.	2a-/)	.	.
4e- 4A-\	.	.	.	.
4e- 4A-\	.	(>[4f/	.	.
=10	=10	=10	=10	=10
4C-X/	.	8f/L]	.	.
.	.	8g/J	.	<
4e- 4A-\	.	[2f/	.	.
4e- 4A-\	.	.	.	.
=11	=11	=11	=11	=11
4BB-/	.	8f/L]	.	[[
.	.	8g/J	.	.
4dn 4A-\	.	4.f/	.	.
4d 4A-\	.	.	.	.
.	.	8g/	.	.
=12	=12	=12	=12	=12
.	.	(16qqf/LL	.	.
!!LO:TX:a:i:t=poco rit.
.	.	16qqg/JJ	.	.
4EE-/	.	8f/L)	.	.
.	.	8e-/J	.	.
4G 4E-\	2	4B-'/)	.	>
4G 4E-\	.	4c'/	.	.
.	.	.	.	]
!!LO:LB:g=original
=13	=13	=13	=13	=13
!!LO:TX:a:i:t=a tempo
4AA-/	.	2.r	.	.
4c 4E-\	.	.	.	.
4c 4E-\	.	.	.	.
=14	=14	=14	=14	=14
4BB--/	.	2.r	.	.
!LO:TX:t=P:problem:klamra	!	!	!	!
4e- 4d- 4E-\	.	.	.	.
4e- 4d- 4E-\	.	.	.	.
=15	=15	=15	=15	=15
4AA-/	.	4r	.	.
4c 4E-\	.	8r	.	.
.	.	(8cc\L	.	.
4c 4E-\	.	8aa-\	.	.
.	.	8ff\J)	.	.
=16	=16	=16	=16	=16
.	.	(16qqee-/LL	.	.
.	.	16qqff/JJ	.	.
4BB--/	.	8ee-\L)	.	.
.	.	8cc'\J	.	.
4e- 4d- 4E-\	.	2ee-\	.	.
4e- 4d- 4E-\	.	.	.	.
=17	=17	=17	=17	=17
4AA-/	.	4r	.	.
4c 4E-\	.	8r	.	.
.	.	(8cc\L	.	.
4c 4E-\	.	8aa-\	.	.
.	.	8ff\J	.	.
=18	=18	=18	=18	=18
.	.	16qqee-/LL	.	<
.	.	16qqff/JJ	.	.
4D-\	.	8ee-\L	.	.
.	.	8cc\J	.	.
4e- 4G\	.	8b-\)	.	[
.	.	8r	.	.
4e- 4G\	.	(4cc\	.	.
!!LO:LB:g=original
=19	=19	=19	=19	=19
4C/	.	2a-/)	.	.
4e- 4A-\	.	.	.	.
4e- 4A-\	.	(>[4f/	.	.
=20	=20	=20	=20	=20
4C-X/	.	8f/L]	.	.
.	.	8g/J	.	.
!	!	!LO:TX:b:i:t=poco a poco cresc.-:ext=ud:problem:text with extention lines	!	!
4e- 4A-\	.	[2f/	.	<
4e- 4A-\	.	.	.	.
=21	=21	=21	=21	=21
*	*	*^	*	*
4BB-/	.	8f/L]	4ryy	.	.
.	.	8g/J)	.	.	.
4dn 4A-\	.	([2b-:/	(4.f:\	.	.
4d 4A-\	.	.	.	.	.
.	.	.	8g\	.	.
=22	=22	=22	=22	=22	=22
*	*	*	*	*below	*
4FF/	.	8b-/L]	2.a-\)	1	.
*	*	*	*	*above	*
.	.	8bn/J	.	2	.
4c 4A-\	.	4.cc/	.	.	.
4c 4A-\	.	.	.	.	.
.	.	8ddn/	.	.	.
=23	=23	=23	=23	=23	=23
4C 4CC/	.	[2.ee-/	8a-\L	.	.
.	.	.	8b-\J	.	.
4e- 4A-\	.	.	[2a-\	.	.
4e- 4A-\	.	.	.	.	.
=24	=24	=24	=24	=24	=24
4C-X 4CC-X/	.	2ee-/]	8a-\L]	.	.
.	.	.	8b-\J	.	.
4e- 4A-\	.	.	2a-\	.	.
4dn 4A-\	.	4een/	.	3	.
!!LO:LB:g=original
=25	=25	=25	=25	=25	=25
4BB- 4BBB-/	.	4ff/	8a-\L	4	.
.	.	.	8cc\J	.	.
4dn 4A-\	2 5	4gg/	2b-\	5	.
4a- 4d\	1 3	4aa-/)	.	4	[[
=26	=26	=26	=26	=26	=26
4GG 4GGG/	.	[2.bb-::/	8.a-::\L	.	f
.	.	.	16ee-\Jk	.	.
4B- 4Dn\	2 5	.	[2ddn\	.	.
4g 4B-\	1 3	.	.	.	.
=27	=27	=27	=27	=27	=27
*^	*	*	*	*	*
4rA	2.GG\	.	4bb-/]	8.dd\L]	.	.
*	*	*	*	*	*below	*
.	.	.	.	16ee-\Jk	3	.
*	*	*above	*	*	*	*
(4E-/	.	2	([2bb- 2dd-X\	2ryy	2	.
[4En/	.	.	.	.	.	.
=28	=28	=28	=28	=28	=28	=28
8E/L]	2AA-\	.	4.bb-/]	2.cc\	.	.
16rA	.	.	.	.	.	.
16G/Jk	.	1	.	.	.	.
4F'/)	.	.	.	.	.	.
*	*	*	*	*	*above	*
.	.	.	8aa-/L	.	4	.
*	*	*below	*	*	*	*
4f 4c 4A-\	4ryy	4	8gg/	.	5	.
.	.	.	8ff/J	.	4	.
=29	=29	=29	=29	=29	=29	=29
!!LO:TX:a:i:t=poco rit.
!	!	!	!LO:TX:b:i:t=espress.	!	!	!
4GG/	4ryy	.	8ee-/L	2cc\	2 3	.
.	.	.	8ff#X/J	.	.	.
*	*	*above	*	*	*	*
(8e-/L	4c [4G\	2	4.gg/	.	.	.
8f#X/J	.	1	.	.	.	.
4g 4dn 4G\])	4ryy	.	.	[4bn\	.	>
.	.	.	8ddn/	.	2	]]
!!LO:PB:g=original
=30	=30	=30	=30	=30	=30	=30
!!LO:TX:a:i:t=a tempo
(>4C/	4ryy	.	4ee-/)	(8bnX\L]	3	.
*	*	*	*	*	*below	*
.	.	.	.	8cc\	2	.
*	*	*below	*	*	*above	*
4G/	2G\	2	2ryy	8ff#X 8ddn\	1 4	.
.	.	.	.	8gg 8ee-\	2 5	.
4e-/)	.	.	.	8bbn 8dd\	1 4	.
.	.	.	.	8cccJ 8ee-\	2 5	.
*v	*v	*	*	*	*	*
*	*	*v	*v	*	*
=31	=31	=31	=31	=31
4C/	.	8eee-L 8gg\)	1 4	.
.	.	16r	.	.
.	.	16a-\Jk	.	>
4e- 4G\	.	[2g/	.	.
4e- 4G\	.	.	.	.
=32	=32	=32	=32	=32
*^	*	*	*	*
4r	2.C\	.	8g/L]	.	]
.	.	.	16r	.	.
.	.	.	16a-/Jk	.	>
*	*	*above	*	*	*
(4A-/	.	2	(>[2ee- 2g-X/	.	.
[4An/	.	.	.	.	.
=33	=33	=33	=33	=33	=33
*	*	*	*^	*	*
*	*	*below	*	*	*	*
8A/L]	2D-\	5	4.ee-/]	[2.f\	.	.
!	!	!	!	!	!	!LO:HP:a
16rc	.	.	.	.	.	>
16c/Jk	.	.	.	.	.	.
8B-/)	.	.	.	.	.	.
8rc	.	.	8dd-/L	.	4	.
4d- 4F\	4ryy	4	8cc/	.	5	.
.	.	.	8b-/J	.	4	.
=34	=34	=34	=34	=34	=34	=34
4rc	2.Dn\	.	8a-/L	2.f\_	.	]
!!LO:TX:a:i:t=poco rit.
.	.	.	8bn/J	.	.	.
(8A-/L	.	3	4.cc/	.	.	.
8Bn/J	.	.	.	.	.	.
4c/)	.	.	.	.	.	.
.	.	.	8a-/)	.	.	.
*v	*v	*	*	*	*	*
!!LO:LB:g=original
=35	=35	=35	=35	=35	=35
!!LO:TX:a:i:t=a tempo
8GG\L	.	(4g/	4f_\]	.	p
8Dn\	2	.	.	.	.
!	!	!LO:TX:b:i:t=poco a poco cresc.-ed accelerando-:ext=ud:problem:text with extention lines	!	!	!
8G\	.	8anL 8f/]	4ryy	.	<
8dn\	2	8bn 8g/	.	.	.
8fJ 8G\	.	8cc 8a/	4ryy	1 3	.
8r	.	8ddnJ 8b/	.	.	.
=36	=36	=36	=36	=36	=36
(8C\L	.	8ee-/L	(4.cc\	1 3	.
8G\J	.	8ff#X/J	.	.	.
4e-\	.	4.gg/	.	.	.
*	*	*	*	*below	*
.	.	.	8b-X\	2	.
4F\)	.	.	[4an\)	.	.
*	*	*	*	*above	*
.	.	8ee-/)	.	3	.
=37	=37	=37	=37	=37	=37
8BB-\L	.	(4ddn/	(8a\L]	4	.
8F\	3	.	8b-\	.	.
8dn\	.	2ryy	8ee- 8cc\	1 3	.
8B-\	4	.	8ff 8dd\	.	.
8a-X\J	.	.	8gg 8ee-\	.	.
8r	.	.	8aa-XJ 8ff\)	1 2	.
=38	=38	=38	=38	=38	=38
*ped	*	*	*	*	*
(8EE-\L	.	8bb-/L	(4.ff\	.	.
8D-X\	2	8ccc/J	.	.	.
8G\	.	4.ddd-X/	.	.	.
*	*	*	*	*below	*
8E-\	5	.	8ff#X\	2	.
8d-\	2	.	[4gg\	1	.
*	*	*	*	*above	*
8G\J	4	8ccc/	.	4	.
*clefG2	*	*	*	*	*
=39	=39	=39	=39	=39	=39
8e-/L	1	4.ddd-/	8gg\L]	.	.
8d-/	5	.	8aa-\J	.	.
*	*	*	*	*below	*
8g/	.	.	4.aan\	1	.
*	*	*	*	*above	*
8e-/	.	8ccc/	.	3	.
8dd-/	.	4ddd-/)	.	.	.
8g/J	5	.	8bb-\)	.	[[
*	*	*v	*v	*	*
!!LO:LB:g=original
=40	=40	=40	=40	=40
*	*	*8va	*	*
8ee-\L	.	(8bbn\L	1	.
8dd-\	.	8ccc\	.	.
8gg\J)	.	8ddd-\	.	.
8r	.	8dddn\	1	<
4r	.	8eee-\	3	.
.	.	8eeen\J	1	.
=41	=41	=41	=41	=41
2.r	.	8fff\L	.	.
.	.	8fff#X\	.	.
.	.	8ggg\	1	.
.	.	8aaa-\	.	[
.	.	8aaan\	.	.
*Xped	*	*	*	*
.	.	8bbb-\J	.	.
*clefF4	*	*	*	*
=42||	=42||	=42||	=42||	=42||
*k[f#c#g#d#a#]	*	*k[f#c#g#d#a#]	*	*
*ped	*	*	*	*
!!LO:TX:a:i:t=a tempo
!LO:TX:t=P:problem:mixed beam	!	!	!	!LO:DY:t=%s con fuoco
(<8DD#/L	.	8bbbn\)	.	f
*	*	*X8va	*	*
8BB/	.	8ryy	.	.
8F#/	.	4ryy	.	.
8B>\	.	.	.	.
8b> 8d#>\	.	4ryy	.	.
8g#>\J)	.	.	.	.
=43	=43	=43	=43	=43
*ped	*	*	*	*
.	.	(16qqf#/LL	.	.
.	.	16qqg#/JJ	.	.
*	*	*^	*	*
(8CC#\L	.	(>8f#/L)	4.ryy	.	.
8GG#\	.	8e/	.	.	.
8E\	.	8g#/	.	.	.
8B\	2	8b/	4.b\	1	.
8eJ 8G#\)	.	8gg#/	.	.	.
8r	.	8ee/J)	.	4	.
*	*	*v	*v	*	*
=44	=44	=44	=44	=44
*ped	*	*	*	*
.	.	(16qqdd#/LL	.	.
.	.	16qqee/JJ	.	.
(8FF#\L	.	(8dd#\L)	.	.
8E\	2	8cc#\	.	.
8A#\	.	8b#X\	.	.
8F#\	4	8cc#\	.	.
*Xped	*	*	*	*
8eJ 8A#\)	.	8dd#\)	.	.
8r	.	16r	.	.
.	.	16ee\Jk	1	.
!!LO:LB:g=original
=45	=45	=45	=45	=45
*ped	*	*	*	*
(8BBB\L	.	[2ff#\	.	.
8BB\	.	.	.	.
8An\	5	.	.	.
8B\	4	.	.	.
!LO:TX:t=P:problem:klamra	!	!	!	!
8bJ 8an 8d#\)	.	8ff#\L]	.	.
8r	.	8ff##X\J	.	.
=46	=46	=46	=46	=46
*	*	*^	*	*
*ped	*	*8va	*8va	*	*
(8EE\L	.	4.ryy	2.gg#\	1	.
8BB\	.	.	.	.	.
8E\	.	.	.	.	.
8B\	2	(8bb/L	.	2	.
8eJ 8G#\)	.	8ggg#/	.	.	.
8r	.	8eee/J)	.	.	.
*	*	*v	*v	*	*
=47	=47	=47	=47	=47
.	.	(16qqddd#/LL	3	.
.	.	16qqeee/JJ	5	.
(8AA#\L	.	(8ddd#L 8ff#\)	1 4	.
8G#\	2	8ccc# 8ee\	1 3	.
8c#\	.	8eee 8gg#\	2 5	.
8G#\	4	8ggg#\	2	.
8g#\J)	.	8eeee 8eee\	.	.
8r	.	8cccc#J 8ccc#\)	.	.
=48	=48	=48	=48	=48
(8DD#\L	.	(8bbbL 8bb\	.	.
.	.	(16qqaaa#/LL	.	.
.	.	16qqbbb/JJ	.	.
8C#\	2	8aaa# 8aa#\)	4	.
8F##X\	.	8ggg##X 8gg##X\	.	.
8D#\	5	8aaa# 8aa#\	4	.
!LO:TX:t=P:problem:klamra	!	!	!	!
8d#J 8c# 8F##\)	.	8bbb 8bb\	.	.
8r	.	8cccc#J 8ccc#\)	.	.
=49	=49	=49	=49	=49
(8GG#\L	.	2dddd# 2ddd#\	.	.
*	*	*X8va	*	*
!LO:N:acc=n#	!	!	!	!
8F#X\	2	.	.	.
8B#X\	.	.	.	.
8G#\J	5	.	.	.
!LO:TX:t=P:problem:klamra	!	!	!	!
4g# 4f# 4B#\)	.	[4dd#^\	.	.
!!LO:LB:g=original
=50||	=50||	=50||	=50||	=50||
*k[b-e-a-d-]	*	*k[b-e-a-d-]	*	*
(8GG\L	.	2ee-\_	.	.
8F\	.	.	.	.
8Bn\	.	.	.	.
8G\	5	.	.	.
!LO:TX:t=P:problem:klamra	!	!	!	!
8gJ 8f 8B\)	.	(<8ee-\L]	.	.
8r	.	[8ddn\J	.	.
=51	=51	=51	=51	=51
(8GG-X\L	.	8dd\L]	.	.
8E-\	2	8cc\	.	.
8B-\	.	8bn\	.	.
8G-X\	.	8cc\	.	.
8e-\J)	3	8ddn\	.	.
8r	.	[<8ee-\J)	1	.
=52	=52	=52	=52	=52
*	*	*^	*^	*
(8FF\L	.	(2dddn/	(8ee-\L]	.	.	.
8E-\	.	.	8ff\	.	1	.
8An\	.	.	8ff#X\	.	2	>
8F\	3	.	8gg\	.	1	.
8e-\J)	.	[4ccc/)	8gg#X\	4	2	.
8r	.	.	[8aan\J)	.	.	]
*	*	*	*	*v	*v	*
*	*	*v	*v	*	*
=53	=53	=53	=53	=53
(8FF-X\L	.	(<8ccc]L 8aa\]	.	.
8D-\	.	8bb-\	2	.
!	!	!	!	!LO:HP:t=dim. e rit. molto
8A-X\	.	8aan\	.	>
[<8F-X\	3	8bb-\	.	.
*	*	*8va	*	*
8d-J 8F-\])	.	8ccc\	.	.
8r	.	[<8ddd-\J	1	.
=54	=54	=54	=54	=54
*	*	*^	*^	*
(8EE-\L	.	(2cccc/	8ddd-\L]	.	.	.
8D-\	.	.	8dddn\	.	1	.
8G\	.	.	8eee-\	.	2	.
8E-\	5	.	8eeen\	.	1	.
8d-~\	2	4bbb-/)	8fff\	4	2	.
8e-~\J)	.	.	8ggg\J)	.	.	.
*	*	*X8va	*	*	*	*
*	*	*	*	*v	*v	*
*	*	*v	*v	*	*
!!LO:PB:g=original
=55||	=55||	=55||	=55||	=55||
*k[f#c#g#d#]	*	*k[f#c#g#d#]	*	*
*	*	*^	*	*
!!LO:TX:a:i:t=a tempo
!	!	!	!	!	!LO:DY:t=molto %s
N(8GG#\L	.	4rdd	[2.e^\	.	p
8E\	.	.	.	.	.
8B\J	.	8rdd	.	.	.
8r	.	8g#/L	.	.	.
4r	.	8ee/	.	.	.
.	.	8cc#/JN)	.	.	.
*	*	*v	*v	*	*
=56	=56	=56	=56	=56
.	.	(16qqb/LL	.	.
.	.	16qqcc#/JJ	.	.
(8FF#\L	.	(8bL 8e\])	.	.
8C#\	.	8a\	.	.
8A\	.	8cc#\	.	.
8c#\	4	8ee\	1	.
8aJ 8e\)	.	8ccc#\	.	.
8r	.	8aa\J)	3	.
=57	=57	=57	=57	=57
.	.	(16qqgg#/LL	2	.
.	.	16qqaa/JJ	4	.
(8BB\L	.	(8gg#\L)	3	.
8A\	.	8ff#\	.	.
8A\	5	8ee#X\	.	<
8B\	.	8ff#\	.	.
!LO:TX:t=P:problem:klamra	!	!	!	!
8bJ 8a 8d#\)	.	8.gg#\)	.	.
8r	.	.	.	.
.	.	(16aa\Jk	1	[
=58	=58	=58	=58	=58
(8EE\L	.	[2bb\	.	.
8BB\	.	.	.	.
8E\	.	.	.	.
[<8G#\	4	.	.	.
!LO:TX:t=P:problem:klamra	!	!	!	!
8eJ 8dn 8G#\])	.	8bb\L]	.	.
8r	.	8bb#X\J)	.	.
=59	=59	=59	=59	=59
*	*	*^	*	*
*	*	*8va	*	*	*
(8AA\L	.	2ccc#/	(>4.ccc#^\	1	.
8E\	.	.	.	.	.
8A\	.	.	.	.	.
8e\	2	.	8eee\L	.	.
8aJ 8c#\)	.	4ryy	8cccc#\	.	.
8r	.	.	8aaa\J)	.	.
*	*	*v	*v	*	*
!!LO:LB:g=original
=60	=60	=60	=60	=60
.	.	(16qqggg#/LL	3	.
.	.	16qqaaa/JJ	5	.
(8D#\L	.	(8ggg#L 8bb\)	4	.
8c#\	.	8fff# 8aa\	3	.
8f#\	.	8aaa 8ccc#\	5	.
8c#\	4	8cccc#\)	2	.
*clefG2	*	*	*	*
8cc#\J)	.	8aaaa 8aaa\	.	.
8r	.	8ffff#J 8fff#\	4	>
*clefF4	*	*	*	*
=61	=61	=61	=61	=61
(8GG#\L	.	8eeeeL 8eee\	.	.
.	.	(16qqdddd#/LL	4	.
.	.	16qqeeee/JJ	.	.
8F#\	.	(8dddd# 8ddd#\)	.	.
8B#X\	.	8cccc##X 8ccc##X\	.	.
8G#\	5	8dddd# 8ddd#\	4	]
!LO:TX:t=P:problem:klamra	!	!	!	!
8g#J 8f# 8B#\)	4	8eeee 8eee\	.	.
8r	.	8ffff#J 8fff#\)	4	.
=62	=62	=62	=62	=62
(8CC#\L	.	2gggg# 2ggg#\	.	.
8C#\	.	.	.	.
8G#\	.	.	.	.
8Bn\	.	.	.	.
*	*	*X8va	*	*
8e#X\J)	.	(4g#^>/	.	.
8r	.	.	.	.
=63||	=63||	=63||	=63||	=63||
*k[b-e-a-d-]	*	*k[b-e-a-d-]	*	*
!	!	!	!	!LO:HP:a:t=poco cresc.
(8CC\L	.	[2a-/)	.	<
8C\	.	.	.	.
8En\	.	.	.	.
8B-\	.	.	.	.
8en\J)	.	8a-/L]	.	.
8r	.	[8g/J	.	.
=64	=64	=64	=64	=64
(8CC-X\L	.	(8g/L]	.	.
8C-X\	.	8f/	.	.
8E-X\	.	8en/	.	.
8A-\	.	8f/	.	.
8e-X\J)	.	8g/	.	.
8r	.	[8a-/J)	1	.
!!LO:LB:g=original
=65	=65	=65	=65	=65
*	*	*^	*^	*
!	!	!LO:TX:a:i:t=espress.	!	!	!	!
(8BBB-\L	.	(2gg/	(8a-\L]	.	.	.
8BB-\	.	.	8b-\	.	2	.
8A-\	.	.	8bn\	.	1	.
8dn\	.	.	8cc\	.	2	.
8a-\J)	.	4ff/)	8cc#\	4	3	.
8r	.	.	[8ddn\J)	.	1	.
*	*	*	*	*v	*v	*
=66	=66	=66	=66	=66	=66
!!LO:TX:a:i:t=poco rit.
(8EE-\L	.	(2ccc/	(8dd\L]	.	>
8D-X\	.	.	8ee-\	.	.
8G\	.	.	8een\	.	.
8E-\	.	.	8ff\	.	.
8d-X\	.	4bb-/)	8ff#X\	4	]
8B-\J)	.	.	8gg\J)	.	.
*	*	*v	*v	*	*
=67	=67	=67	=67	=67
*^	*	*	*	*
!!LO:TX:a:i:t=a tempo
!	!	!	!LO:TX:b:i:t=poco marcato	!	!
2.c::/	4AA-'::\	.	4r	.	.
.	4E-'\	3	8r	.	.
.	.	.	(8cc\L	.	.
.	4E-'\	.	8aa-\	.	.
.	.	.	8ff\J)	.	.
=68	=68	=68	=68	=68	=68
.	.	.	(16qqee-/LL	.	.
.	.	.	16qqff/JJ	.	.
2.d-/	4BB-'\	.	8ee-\L)	.	.
.	.	.	8cc\J	.	.
.	4E-'\	.	2ee-\	.	.
.	4E-'\	.	.	.	.
=69	=69	=69	=69	=69	=69
2.dn/	4BBn'\	.	4r	.	.
.	4A-'\	2	8r	.	.
.	.	.	(8a-\L	.	.
.	4A-'\	.	8aa-\	.	.
.	.	.	8ff\J)	.	.
*v	*v	*	*	*	*
!!LO:LB:g=original
=70	=70	=70	=70	=70
.	.	(16qqee-/LL	.	.
.	.	16qqff/JJ	.	.
*^	*	*^	*	*
*	*^	*	*	*	*	*
!LO:TX:t=P:problem:kreska między 2e-/ i 4en::\	!	!	!	!	!	!	!
2e-/	2.C\	4rF	.	(8ee-\L)	2ryy	.	.
.	.	.	.	8cc\J	.	.	.
.	.	4G'/	.	8b-\)	.	.	.
.	.	.	.	8r	.	.	.
4ryy	.	4G'/	.	4cc~::/	4en::\	5	.
*	*v	*v	*	*	*	*	*
*	*	*	*v	*v	*	*
=71	=71	=71	=71	=71	=71
4r	2.D-\	.	(>2.a- 2.f/	2 3	.
4d- 4A-/	.	.	.	.	.
4d- 4A-/	.	.	.	.	.
*v	*v	*	*	*	*
=72||	=72||	=72||	=72||	=72||
*k[f#c#g#]	*	*k[f#c#g#]	*	*
*^	*	*^	*	*
!!LO:TX:a:i:t=poco sostenuto
4r	2.D\	4	(8g#/L)	[2.e\	.	p
.	.	.	8a/J	.	.	.
4B 4E/	.	.	[2g#/	.	.	.
4B 4E/	.	.	.	.	.	.
=73	=73	=73	=73	=73	=73	=73
4r	2C#\	2	8g#/L]	2e\]	.	.
.	.	.	8b/J	.	.	.
[2E/	.	.	[2a/	.	.	.
*	*	*	*	*	*below	*
.	4Cn\	.	.	4d#X\	2	.
=74	=74	=74	=74	=74	=74	=74
4E] 4BB/	2ryy	.	8a/L]	2.dn\	.	.
.	.	.	8g#/J	.	.	.
!!LO:TX:a:i:t=tornando al tempo
[2E/	.	.	4a 4f#/	.	.	.
.	4EE\	.	4b [<4g#/	.	.	.
*v	*v	*	*	*	*	*
=75	=75	=75	=75	=75	=75
*	*	*	*^	*	*
4E] 4AA/	3	(2cc#::/	2c#::\	8.g#\L]	.	.
.	.	.	.	16a\Jk	.	.
4c# 4E\	4	.	.	&(<[<2gn\	2	.
4d-X 4E-X\	3	8.dd-X/L)	4ryy	.	.	.
.	.	16ee-X/Jk	.	.	.	.
*	*	*v	*v	*v	*	*
!!LO:LB:g=original
=76||	=76||	=76||	=76||	=76||
*k[b-e-a-d-]	*	*k[b-e-a-d-]	*	*
*	*	*^	*^	*
!LO:TX:b:i:t=bene staccato	!	!	!	!	!	!
4AA-/	.	[2cc/	8.g\L]&)	4	1	.
.	.	.	16a-\Jk	.	2	.
4c 4E-\	3	.	[2f#X\	.	.	.
4c 4Dn\	.	8.cc/L]	.	.	.	.
.	.	16ddn/Jk	.	.	.	.
*	*	*	*	*v	*v	*
=77	=77	=77	=77	=77	=77
*	*	*	*	*above	*
!	!	!LO:TX:a:i:t=poco a poco crescendo-:ext=ud:problem:text with extention lines	!	!	!LO:HP:a
4GG/	.	[2bn/	8.f#\L]	4	<
.	.	.	16g\Jk	.	.
4Bn 4Dn\	3	.	[2fn\	.	.
4c-X 4D-X\	.	8.cc-X/L]	.	.	.
.	.	16dd-X/Jk	.	.	.
=78	=78	=78	=78	=78	=78
4GG-X/	.	[2b-X/	8.f\L]	4	.
.	.	.	16g-X\Jk	.	.
4B- 4D-X\	3	.	[2en\	.	.
4B- 4C\	.	8b-/L]	.	.	.
.	.	8cc/J	.	.	.
=79	=79	=79	=79	=79	=79
4FF/	.	[2.dd-/	8.e\L]	4	.
.	.	.	16g-X\Jk	.	.
4B- 4F\	2	.	[2f\	.	.
4B- 4F\	.	.	.	.	.
=80	=80	=80	=80	=80	=80
4FF-X/	.	2.dd-/_	8.f\L]	.	.
.	.	.	16a-\Jk	.	.
4B- 4F-X\	.	.	[2g-X\	.	.
4B- 4F-\	.	.	.	.	.
=81	=81	=81	=81	=81	=81
4E- 4EE-/	.	2dd-/]	8.g-\L]	.	.
.	.	.	16a-\Jk	.	.
4B- 4E-\	3	.	[2gn\	.	.
(4D-X 4DD-X/	4	4ddn/	.	5	[[
!!LO:PB:g=original
=82	=82	=82	=82	=82	=82
4C 4CC/)	.	2ee-/	8g\L]	4	.
.	.	.	8b-\J	.	.
4e- 4A-\	3	.	[2a-\	.	.
(4C-X 4CC-X/	.	4een/	.	5	.
=83	=83	=83	=83	=83	=83
4BB- 4BBB-/)	4	4ff/	8a-\L]	4	.
.	.	.	8cc\J	.	.
4dn 4A-\	2 5	4gg~/)	[2b-\	5	.
4a- 4d\	1 3	4aa-~/	.	4	.
=84	=84	=84	=84	=84	=84
!	!	!	!	!	!LO:DY:t=poco %s
4GG 4GGG/	.	[2.bb-/	8.b-\L]	.	f
.	.	.	16ee-\Jk	.	.
4B- 4Dn\	2 5	.	[2ddn\	.	.
4g 4B-\	3	.	.	.	.
=85	=85	=85	=85	=85	=85
*^	*	*	*	*	*
4rF	2.GG\	.	4bb-/]	8.dd\L]	.	.
*	*	*above	*	*	*below	*
.	.	.	.	16ee-\Jk	3	.
(4E-/	.	2	([2bb-/	2dd-X\	.	.
[4En/	.	.	.	.	.	.
=86	=86	=86	=86	=86	=86	=86
8E/L]	2AA-\	.	4.bb-/]	2.cc\	.	>
16rF	.	.	.	.	.	.
16G/Jk	.	1	.	.	.	.
4F/)	.	.	.	.	.	.
.	.	.	8aa-/L	.	.	.
*	*	*below	*	*	*above	*
4f 4c 4A-\	4ryy	4	8gg/	.	5	]]
.	.	.	8ff/J	.	4	.
=87	=87	=87	=87	=87	=87	=87
!	!	!	!LO:TX:a:i:t=espress.	!	!	!
4GG/	4ryy	.	8ee-/L	2cc\	2 3	.
.	.	.	8ff#X/J	.	.	.
*	*	*above	*	*	*	*
(8e-/L	4c [4G\	2	4.gg/	.	.	.
8f#X/J	.	1	.	.	.	.
4g 4dn 4G\])	4ryy	.	.	[4bn\	.	.
.	.	.	8ddn/	.	2	.
*v	*v	*	*	*	*	*
!!LO:LB:g=original
=88	=88	=88	=88	=88	=88
(4C/	.	4ee-/)	(8bnX\L]	3	p
.	.	.	8cc\	2	.
*	*below	*	*	*	*
[<4G\	2	2ryy	8ff#X 8ddn\	1 4	.
.	.	.	8gg 8ee-\	2 5	.
4e- 4G\])	.	.	8bbn 8dd\	1 4	.
.	.	.	8cccJ 8ee-\)	2 5	.
*	*	*v	*v	*	*
=89	=89	=89	=89	=89
4C/	.	8eee-L 8gg\	1 4	.
.	.	16r	.	.
.	.	16a-\Jk	.	.
4e- 4G\	.	[2g/	.	.
4e- 4G\	.	.	.	.
=90	=90	=90	=90	=90
*^	*	*	*	*
4rc	2.C\	.	8.g/L]	.	.
.	.	.	16a-/Jk	.	.
*	*	*above	*	*	*
(4A-/	.	2	([2ee- 2g-X\	.	.
[4An/	.	.	.	.	.
=91	=91	=91	=91	=91	=91
*	*	*	*^	*	*
8A/L]	2D-\	.	4.ee-/]	2.f\	.	.
16rc	.	.	.	.	.	.
16c/Jk	.	.	.	.	.	.
8B-/)	.	.	.	.	.	.
!!LO:TX:a:i:t=rallentando:dur=21e:ext=ud:problem:text with extention lines
8rc	.	.	8dd-/L	.	4	.
*	*	*below	*	*	*	*
4d- 4F\	4ryy	4	8cc/	.	5	.
.	.	.	8b-/J	.	.	.
=92	=92	=92	=92	=92	=92	=92
4rc	[2.Dn\	.	8a-/L	[2.f\	.	.
.	.	.	8bn/J	.	.	.
*	*	*above	*	*	*	*
(8A-/L	.	3	4.cc/	.	.	.
8Bn/J	.	.	.	.	.	.
[4c/)	.	.	.	.	.	.
.	.	.	[8a-/	.	.	.
*v	*v	*	*	*	*	*
*	*	*v	*v	*	*
=93	=93	=93	=93	=93
4c] 4D\]	.	4a-] 4f/])	.	.
4r	.	4r	.	.
4r	.	4r	.	.
!!LO:LB:g=original
=94	=94	=94	=94	=94
*^	*	*^	*	*
(8EE-/L	[2.EE-\	.	(8e-/L	4.d-\	.	>
*	*	*below	*	*	*	*
8AAn/	.	3	8f#X/J	.	.	.
8BB-/	.	.	4.g/	.	.	.
8C/	.	.	.	8An\L	.	.
*	*	*	*	*	*below	*
8D-/	.	2	.	8B-\	2	.
*	*	*	*	*	*above	*
[8E-/J)	.	.	[8e-/	[8Bn\J	1 4	]
*v	*v	*	*	*	*	*
*	*	*v	*v	*	*
=95	=95	=95	=95	=95
4E-] 4EE-/]	.	4e-] 4B/])	.	.
4r	.	4r	.	.
4r	.	4r	.	.
=96	=96	=96	=96	=96
*^	*	*	*	*
!!LO:TX:a:i:t=a tempo
2.c: 2.AA-:/	4rF	.	2.r	.	p
.	4E-\	3	.	.	.
.	4E-\	.	.	.	.
=97	=97	=97	=97	=97	=97
2.d-: 2.BB--:/	4rF	.	4r	.	.
.	4E-\	.	8r	.	.
.	.	.	(8g/L	.	.
.	4E-\	.	8ee-/	.	.
.	.	.	8cc/J)	4	.
=98	=98	=98	=98	=98	=98
.	.	.	(16qqa-/LL	.	.
.	.	.	16qqb-/JJ	.	.
2.c 2.AA-/	4rF	.	8a-/L)	.	.
.	.	.	8f'/J	.	.
.	4E-\	.	[2a-/	.	.
.	4E-\	.	.	.	.
=99	=99	=99	=99	=99	=99
2.d- 2.BB--/	4rF	.	4.a-/]	.	.
.	4E-\	.	.	.	.
.	.	.	(8g/L	.	.
.	4E-\	.	8ee-/	.	.
!	!	!	!	!	!LO:DY:t=più %s
.	.	.	8cc/J)	.	p
*v	*v	*	*	*	*
=100	=100	=100	=100	=100
.	.	(16qqa-/LL	.	.
.	.	16qqb-/JJ	.	.
4AA-/	.	8a-/L)	.	.
.	.	8f-X'/J	.	.
4c 4F-X\	.	[2a-/	3	.
4c 4F-\	.	.	.	.
=101	=101	=101	=101	=101
4AA-/	.	2.a-/]	.	.
4c 4F-X\	.	.	.	.
4c 4F-\	.	.	.	.
!!LO:LB:g=original
=102	=102	=102	=102	=102
!LO:TX:t=P:problem:mixed beam	!	!	!	!
N(8AA-/L	.	2.ryy	.	.
8F-X/	2	.	.	.
8c/	.	.	.	.
8f-X>\	.	.	.	.
8ff-X>\	.	.	.	.
*	*above	*	*	*
8cc>\J	3	.	.	.
=103	=103	=103	=103	=103
!	!	!LO:TX:b:i:t=animandosi	!	!
.	.	(16qqb-/LL	2	.
.	.	16qqcc/JJ	4	.
(8AA-\L	.	8b-\L)	3	.
*	*below	*	*	*
8E-\	3	8a-\	.	.
8c\	.	8cc\	1	.
8A-\	5	8ee-\	.	.
8e-\	2	8ccc\	.	.
8c\J	.	8aa-\J	.	.
*clefG2	*	*	*	*
=104	=104	=104	=104	=104
.	.	(16qqgg-X/LL	2	.
.	.	16qqaa-/JJ	4	.
8a-/L	1	8gg-X\L)	3	.
8c/	5	8ff-X\	.	.
8a-/	.	8aa-\	.	.
8f-X/	.	8ccc\	1	.
*	*	*8va	*	*
8cc/	.	8cccc\	.	.
8a-/J	5	8aaa-\J	.	.
=105	=105	=105	=105	=105
.	.	(16qqfff-X/LL	1	.
.	.	16qqggg-X/JJ	4	.
8ee-\L	2	8fff-X\L)	3	.
8cc\	4	8eee-\	.	.
8aa-\	1	8aaa-\	4	.
8ee-\	5	8cccc\	1	.
8ccc\	2	8aaaa-\	4	.
8aa-\J	3	8ffffn\J	3	.
=106	=106	=106	=106	=106
!	!	!LO:TX:b:i:t=legg.	!	!
16eee-\LL	.	16eeee-\LL	.	.
16ccc\JJ)	.	16cccc\	.	.
8r	.	16aaaa-\	4	.
.	.	16ffff\JJ	3	.
!	!	!LO:TX:t=P:problem:mixed beam	!	!
4ryy	.	16eeee-\LL	.	.
.	.	16cccc\	.	.
*	*	*X8va	*below	*
.	.	16aaa-</	1	.
.	.	16fff</JJ	2	.
!LO:TX:t=P:problem:mixed beam	!	!	!	!
16eee-/LL	.	4ryy	.	.
16ccc/	.	.	.	.
*	*above	*	*	*
16aa->\	4	.	.	.
16ff>\JJ	3	.	.	.
!!LO:LB:g=original
=107	=107	=107	=107	=107
!	!	!LO:TUP:a	!	!
52%3ryy	.	52%3ee-/LL	.	.
52%3ryy	.	52%3cc/JJ	.	.
*	*	*	*below	*
52%3ryy	.	52%3a-\LL	1	.
52%3ryy	.	52%3f\	.	.
52%3ryy	.	52%3e-\	.	.
52%3ryy	.	52%3c\JJ	.	.
*clefF4	*	*	*above	*
52%3ryy	.	52%3A-</LL	4	.
52%3ryy	.	52%3F</	.	.
52%3ryy	.	52%3E-</	.	.
52%3ryy	.	52%3C</JJ	.	.
*	*	*	*below	*
52%3ryy	.	52%3AA-<\LL	1	.
52%3ryy	.	52%3FF<\	.	.
52%3ryy	.	52%3EE-<\JJ	.	.
=108	=108	=108	=108	=108
*ped	*	*	*	*
2.ryy	.	20AAA-<\LL	.	.
.	.	20EE-<\	.	.
.	.	20AA-<\JJ	.	.
*	*	*	*above	*
.	.	20C</LL	1	.
.	.	20E-</	.	.
.	.	20A-</	.	.
.	.	20c</JJ	.	.
*	*	*	*below	*
.	.	20e-\LL	5	.
.	.	20a-\	.	.
.	.	20cc\	.	.
.	.	20ee-\JJ	.	.
*	*	*	*above	*
.	.	20aa-/LL	1	.
*	*	*8va	*	*
.	.	20ccc/	.	.
.	.	20eee-/	.	.
.	.	20aaa-/JJ	.	.
=109	=109	=109	=109	=109
!	!	!LO:TX:b:i:t=m.s.	!	!
2.r	.	8eeee-\N)	2	.
*	*	*X8va	*	*
.	.	8r	.	.
.	.	4r	.	.
.	.	4r	.	.
=110	=110	=110	=110	=110
4c 4G 4C\	.	4ee- 4g 4e-/	.	pp
4r	.	4r	.	.
4r	.	4r	.	.
=111	=111	=111	=111	=111
.	.	(8qqAA-<\L	.	.
.	.	8qqE-<\	.	.
.	.	8qqA-<\J	.	.
.	.	8qqc/L	.	.
.	.	8qqe-/	.	.
.	.	8qqa-/	.	.
!	!	!LO:TX:b:i:t=m.s.	!	!
.	.	8qqcc/J)	.	.
8ryy	.	8ccc 8aa-\	.	.
8r	.	8r	.	.
4r	.	4r	.	.
4r	.	4r	.	.
==	==	==	==	==
*-	*-	*-	*-	*-
!!!system-decoration: {(g1)}
!!!RDF**kern: i = editorial accidental
!!!RDF**kern: > = above
!!!RDF**kern: < = below
!!!RDF**kern: N = linked
!!!RDF**dynam: > = "dim.", fontstyle= "italic"
!!!ENC: Andrzej Gręziak
!!!EED: Katarzyna Serwa
!!!END: 2023-10-22
!!!EEV: 2023-10-27
